!!!OTL: Lindenschmid
!!!ARE: Europa, Mitteleuropa, Deutschland
!!!SCT: A0376
!!!YEM: Copyright 1995, estate of Helmut Schaffrath.
**kern
*ICvox
*Ivox
!! Mixed meters:  6/2; 4/2
*M4/2
*k[b-e-]
*g:
{2g
=1
1g
2g
1dd
2dd
=2
2cc
2b-
1a
2r}
{2a
=3
1g
2g
1dd
2dd
=4
2cc
2b-
2.a
4b-
2cc}
{2cc
=5
2b-
2a
2b-
2g
=6
*M6/2
1fn
1d
2r}
{2a
=7
1b-
2a
1g
2dd
=8
2cc
2b-
2.a
4b-
2cc}
{2cc
=9
*M4/2
2b-
2a
2b-
2g
=10
1fn
1d
=11
*M6/2
1b-
4a
4g
1cc
2b-
=12
1a
1.g}
==
!!!AGN: Romanze, Ballade, Lied, Personenlied
!! Souterliedekens 1540 ad Ps. 45
!!!ONB: ESAC (Essen Associative Code) Database: ALTDEU
!!!AMT: irregular
!!!AIN: vox
!!!EED: Helmut Schaffrath
!!!EEV: 1.0
*-
